assets/images/book-1-x/lincls-cb.svg

<?xml version="1.0" encoding="utf-8" standalone="no"?>
<!DOCTYPE svg PUBLIC "-//W3C//DTD SVG 1.1//EN"
  "http://www.w3.org/Graphics/SVG/1.1/DTD/svg11.dtd">
<!-- Created with matplotlib (https://matplotlib.org/) -->
<svg height="358.56pt" version="1.1" viewBox="0 0 360 358.56" width="360pt" xmlns="http://www.w3.org/2000/svg" xmlns:xlink="http://www.w3.org/1999/xlink">
 <defs>
  <style type="text/css">
*{stroke-linecap:butt;stroke-linejoin:round;}
  </style>
 </defs>
 <g id="figure_1">
  <g id="patch_1">
   <path d="M 0 358.56 
L 360 358.56 
L 360 0 
L 0 0 
z
" style="fill:#ffffff;"/>
  </g>
  <g id="axes_1">
   <g id="patch_2">
    <path d="M 45 319.1184 
L 324 319.1184 
L 324 43.0272 
L 45 43.0272 
z
" style="fill:#ffffff;"/>
   </g>
   <g id="matplotlib.axis_1">
    <g id="xtick_1">
     <g id="line2d_1">
      <defs>
       <path d="M 0 0 
L 0 3.5 
" id="mca3d5e895b" style="stroke:#000000;stroke-width:0.8;"/>
      </defs>
      <g>
       <use style="stroke:#000000;stroke-width:0.8;" x="57.681818" xlink:href="#mca3d5e895b" y="319.1184"/>
      </g>
     </g>
     <g id="text_1">
      <!-- 0 -->
      <defs>
       <path d="M 31.78125 66.40625 
Q 24.171875 66.40625 20.328125 58.90625 
Q 16.5 51.421875 16.5 36.375 
Q 16.5 21.390625 20.328125 13.890625 
Q 24.171875 6.390625 31.78125 6.390625 
Q 39.453125 6.390625 43.28125 13.890625 
Q 47.125 21.390625 47.125 36.375 
Q 47.125 51.421875 43.28125 58.90625 
Q 39.453125 66.40625 31.78125 66.40625 
z
M 31.78125 74.21875 
Q 44.046875 74.21875 50.515625 64.515625 
Q 56.984375 54.828125 56.984375 36.375 
Q 56.984375 17.96875 50.515625 8.265625 
Q 44.046875 -1.421875 31.78125 -1.421875 
Q 19.53125 -1.421875 13.0625 8.265625 
Q 6.59375 17.96875 6.59375 36.375 
Q 6.59375 54.828125 13.0625 64.515625 
Q 19.53125 74.21875 31.78125 74.21875 
z
" id="DejaVuSans-48"/>
      </defs>
      <g transform="translate(54.500568 333.716838)scale(0.1 -0.1)">
       <use xlink:href="#DejaVuSans-48"/>
      </g>
     </g>
    </g>
    <g id="xtick_2">
     <g id="line2d_2">
      <g>
       <use style="stroke:#000000;stroke-width:0.8;" x="108.409091" xlink:href="#mca3d5e895b" y="319.1184"/>
      </g>
     </g>
     <g id="text_2">
      <!-- 1 -->
      <defs>
       <path d="M 12.40625 8.296875 
L 28.515625 8.296875 
L 28.515625 63.921875 
L 10.984375 60.40625 
L 10.984375 69.390625 
L 28.421875 72.90625 
L 38.28125 72.90625 
L 38.28125 8.296875 
L 54.390625 8.296875 
L 54.390625 0 
L 12.40625 0 
z
" id="DejaVuSans-49"/>
      </defs>
      <g transform="translate(105.227841 333.716838)scale(0.1 -0.1)">
       <use xlink:href="#DejaVuSans-49"/>
      </g>
     </g>
    </g>
    <g id="xtick_3">
     <g id="line2d_3">
      <g>
       <use style="stroke:#000000;stroke-width:0.8;" x="159.136364" xlink:href="#mca3d5e895b" y="319.1184"/>
      </g>
     </g>
     <g id="text_3">
      <!-- 2 -->
      <defs>
       <path d="M 19.1875 8.296875 
L 53.609375 8.296875 
L 53.609375 0 
L 7.328125 0 
L 7.328125 8.296875 
Q 12.9375 14.109375 22.625 23.890625 
Q 32.328125 33.6875 34.8125 36.53125 
Q 39.546875 41.84375 41.421875 45.53125 
Q 43.3125 49.21875 43.3125 52.78125 
Q 43.3125 58.59375 39.234375 62.25 
Q 35.15625 65.921875 28.609375 65.921875 
Q 23.96875 65.921875 18.8125 64.3125 
Q 13.671875 62.703125 7.8125 59.421875 
L 7.8125 69.390625 
Q 13.765625 71.78125 18.9375 73 
Q 24.125 74.21875 28.421875 74.21875 
Q 39.75 74.21875 46.484375 68.546875 
Q 53.21875 62.890625 53.21875 53.421875 
Q 53.21875 48.921875 51.53125 44.890625 
Q 49.859375 40.875 45.40625 35.40625 
Q 44.1875 33.984375 37.640625 27.21875 
Q 31.109375 20.453125 19.1875 8.296875 
z
" id="DejaVuSans-50"/>
      </defs>
      <g transform="translate(155.955114 333.716838)scale(0.1 -0.1)">
       <use xlink:href="#DejaVuSans-50"/>
      </g>
     </g>
    </g>
    <g id="xtick_4">
     <g id="line2d_4">
      <g>
       <use style="stroke:#000000;stroke-width:0.8;" x="209.863636" xlink:href="#mca3d5e895b" y="319.1184"/>
      </g>
     </g>
     <g id="text_4">
      <!-- 3 -->
      <defs>
       <path d="M 40.578125 39.3125 
Q 47.65625 37.796875 51.625 33 
Q 55.609375 28.21875 55.609375 21.1875 
Q 55.609375 10.40625 48.1875 4.484375 
Q 40.765625 -1.421875 27.09375 -1.421875 
Q 22.515625 -1.421875 17.65625 -0.515625 
Q 12.796875 0.390625 7.625 2.203125 
L 7.625 11.71875 
Q 11.71875 9.328125 16.59375 8.109375 
Q 21.484375 6.890625 26.8125 6.890625 
Q 36.078125 6.890625 40.9375 10.546875 
Q 45.796875 14.203125 45.796875 21.1875 
Q 45.796875 27.640625 41.28125 31.265625 
Q 36.765625 34.90625 28.71875 34.90625 
L 20.21875 34.90625 
L 20.21875 43.015625 
L 29.109375 43.015625 
Q 36.375 43.015625 40.234375 45.921875 
Q 44.09375 48.828125 44.09375 54.296875 
Q 44.09375 59.90625 40.109375 62.90625 
Q 36.140625 65.921875 28.71875 65.921875 
Q 24.65625 65.921875 20.015625 65.03125 
Q 15.375 64.15625 9.8125 62.3125 
L 9.8125 71.09375 
Q 15.4375 72.65625 20.34375 73.4375 
Q 25.25 74.21875 29.59375 74.21875 
Q 40.828125 74.21875 47.359375 69.109375 
Q 53.90625 64.015625 53.90625 55.328125 
Q 53.90625 49.265625 50.4375 45.09375 
Q 46.96875 40.921875 40.578125 39.3125 
z
" id="DejaVuSans-51"/>
      </defs>
      <g transform="translate(206.682386 333.716838)scale(0.1 -0.1)">
       <use xlink:href="#DejaVuSans-51"/>
      </g>
     </g>
    </g>
    <g id="xtick_5">
     <g id="line2d_5">
      <g>
       <use style="stroke:#000000;stroke-width:0.8;" x="260.590909" xlink:href="#mca3d5e895b" y="319.1184"/>
      </g>
     </g>
     <g id="text_5">
      <!-- 4 -->
      <defs>
       <path d="M 37.796875 64.3125 
L 12.890625 25.390625 
L 37.796875 25.390625 
z
M 35.203125 72.90625 
L 47.609375 72.90625 
L 47.609375 25.390625 
L 58.015625 25.390625 
L 58.015625 17.1875 
L 47.609375 17.1875 
L 47.609375 0 
L 37.796875 0 
L 37.796875 17.1875 
L 4.890625 17.1875 
L 4.890625 26.703125 
z
" id="DejaVuSans-52"/>
      </defs>
      <g transform="translate(257.409659 333.716838)scale(0.1 -0.1)">
       <use xlink:href="#DejaVuSans-52"/>
      </g>
     </g>
    </g>
    <g id="xtick_6">
     <g id="line2d_6">
      <g>
       <use style="stroke:#000000;stroke-width:0.8;" x="311.318182" xlink:href="#mca3d5e895b" y="319.1184"/>
      </g>
     </g>
     <g id="text_6">
      <!-- 5 -->
      <defs>
       <path d="M 10.796875 72.90625 
L 49.515625 72.90625 
L 49.515625 64.59375 
L 19.828125 64.59375 
L 19.828125 46.734375 
Q 21.96875 47.46875 24.109375 47.828125 
Q 26.265625 48.1875 28.421875 48.1875 
Q 40.625 48.1875 47.75 41.5 
Q 54.890625 34.8125 54.890625 23.390625 
Q 54.890625 11.625 47.5625 5.09375 
Q 40.234375 -1.421875 26.90625 -1.421875 
Q 22.3125 -1.421875 17.546875 -0.640625 
Q 12.796875 0.140625 7.71875 1.703125 
L 7.71875 11.625 
Q 12.109375 9.234375 16.796875 8.0625 
Q 21.484375 6.890625 26.703125 6.890625 
Q 35.15625 6.890625 40.078125 11.328125 
Q 45.015625 15.765625 45.015625 23.390625 
Q 45.015625 31 40.078125 35.4375 
Q 35.15625 39.890625 26.703125 39.890625 
Q 22.75 39.890625 18.8125 39.015625 
Q 14.890625 38.140625 10.796875 36.28125 
z
" id="DejaVuSans-53"/>
      </defs>
      <g transform="translate(308.136932 333.716838)scale(0.1 -0.1)">
       <use xlink:href="#DejaVuSans-53"/>
      </g>
     </g>
    </g>
   </g>
   <g id="matplotlib.axis_2">
    <g id="ytick_1">
     <g id="line2d_7">
      <defs>
       <path d="M 0 0 
L -3.5 0 
" id="mccf9da2a48" style="stroke:#000000;stroke-width:0.8;"/>
      </defs>
      <g>
       <use style="stroke:#000000;stroke-width:0.8;" x="45" xlink:href="#mccf9da2a48" y="309.694898"/>
      </g>
     </g>
     <g id="text_7">
      <!-- 0.5 -->
      <defs>
       <path d="M 10.6875 12.40625 
L 21 12.40625 
L 21 0 
L 10.6875 0 
z
" id="DejaVuSans-46"/>
      </defs>
      <g transform="translate(22.096875 313.494117)scale(0.1 -0.1)">
       <use xlink:href="#DejaVuSans-48"/>
       <use x="63.623047" xlink:href="#DejaVuSans-46"/>
       <use x="95.410156" xlink:href="#DejaVuSans-53"/>
      </g>
     </g>
    </g>
    <g id="ytick_2">
     <g id="line2d_8">
      <g>
       <use style="stroke:#000000;stroke-width:0.8;" x="45" xlink:href="#mccf9da2a48" y="273.628317"/>
      </g>
     </g>
     <g id="text_8">
      <!-- 1.0 -->
      <g transform="translate(22.096875 277.427536)scale(0.1 -0.1)">
       <use xlink:href="#DejaVuSans-49"/>
       <use x="63.623047" xlink:href="#DejaVuSans-46"/>
       <use x="95.410156" xlink:href="#DejaVuSans-48"/>
      </g>
     </g>
    </g>
    <g id="ytick_3">
     <g id="line2d_9">
      <g>
       <use style="stroke:#000000;stroke-width:0.8;" x="45" xlink:href="#mccf9da2a48" y="237.561736"/>
      </g>
     </g>
     <g id="text_9">
      <!-- 1.5 -->
      <g transform="translate(22.096875 241.360954)scale(0.1 -0.1)">
       <use xlink:href="#DejaVuSans-49"/>
       <use x="63.623047" xlink:href="#DejaVuSans-46"/>
       <use x="95.410156" xlink:href="#DejaVuSans-53"/>
      </g>
     </g>
    </g>
    <g id="ytick_4">
     <g id="line2d_10">
      <g>
       <use style="stroke:#000000;stroke-width:0.8;" x="45" xlink:href="#mccf9da2a48" y="201.495154"/>
      </g>
     </g>
     <g id="text_10">
      <!-- 2.0 -->
      <g transform="translate(22.096875 205.294373)scale(0.1 -0.1)">
       <use xlink:href="#DejaVuSans-50"/>
       <use x="63.623047" xlink:href="#DejaVuSans-46"/>
       <use x="95.410156" xlink:href="#DejaVuSans-48"/>
      </g>
     </g>
    </g>
    <g id="ytick_5">
     <g id="line2d_11">
      <g>
       <use style="stroke:#000000;stroke-width:0.8;" x="45" xlink:href="#mccf9da2a48" y="165.428573"/>
      </g>
     </g>
     <g id="text_11">
      <!-- 2.5 -->
      <g transform="translate(22.096875 169.227792)scale(0.1 -0.1)">
       <use xlink:href="#DejaVuSans-50"/>
       <use x="63.623047" xlink:href="#DejaVuSans-46"/>
       <use x="95.410156" xlink:href="#DejaVuSans-53"/>
      </g>
     </g>
    </g>
    <g id="ytick_6">
     <g id="line2d_12">
      <g>
       <use style="stroke:#000000;stroke-width:0.8;" x="45" xlink:href="#mccf9da2a48" y="129.361992"/>
      </g>
     </g>
     <g id="text_12">
      <!-- 3.0 -->
      <g transform="translate(22.096875 133.16121)scale(0.1 -0.1)">
       <use xlink:href="#DejaVuSans-51"/>
       <use x="63.623047" xlink:href="#DejaVuSans-46"/>
       <use x="95.410156" xlink:href="#DejaVuSans-48"/>
      </g>
     </g>
    </g>
    <g id="ytick_7">
     <g id="line2d_13">
      <g>
       <use style="stroke:#000000;stroke-width:0.8;" x="45" xlink:href="#mccf9da2a48" y="93.29541"/>
      </g>
     </g>
     <g id="text_13">
      <!-- 3.5 -->
      <g transform="translate(22.096875 97.094629)scale(0.1 -0.1)">
       <use xlink:href="#DejaVuSans-51"/>
       <use x="63.623047" xlink:href="#DejaVuSans-46"/>
       <use x="95.410156" xlink:href="#DejaVuSans-53"/>
      </g>
     </g>
    </g>
    <g id="ytick_8">
     <g id="line2d_14">
      <g>
       <use style="stroke:#000000;stroke-width:0.8;" x="45" xlink:href="#mccf9da2a48" y="57.228829"/>
      </g>
     </g>
     <g id="text_14">
      <!-- 4.0 -->
      <g transform="translate(22.096875 61.028048)scale(0.1 -0.1)">
       <use xlink:href="#DejaVuSans-52"/>
       <use x="63.623047" xlink:href="#DejaVuSans-46"/>
       <use x="95.410156" xlink:href="#DejaVuSans-48"/>
      </g>
     </g>
    </g>
   </g>
   <g id="line2d_15">
    <path clip-path="url(#pd6ed3ec4f6)" d="M 57.681818 235.318297 
L 108.409091 256.54841 
L 159.136364 207.7362 
L 209.863636 235.628231 
L 260.590909 231.94716 
L 311.318182 130.184595 
" style="fill:none;stroke:#1f77b4;stroke-linecap:square;stroke-width:1.5;"/>
   </g>
   <g id="line2d_16">
    <path clip-path="url(#pd6ed3ec4f6)" d="M 57.681818 256.38238 
L 108.409091 242.660341 
L 159.136364 130.895286 
L 209.863636 306.5688 
L 260.590909 283.011862 
L 311.318182 55.5768 
" style="fill:none;stroke:#ff7f0e;stroke-linecap:square;stroke-width:1.5;"/>
   </g>
   <g id="patch_3">
    <path d="M 45 319.1184 
L 45 43.0272 
" style="fill:none;stroke:#000000;stroke-linecap:square;stroke-linejoin:miter;stroke-width:0.8;"/>
   </g>
   <g id="patch_4">
    <path d="M 324 319.1184 
L 324 43.0272 
" style="fill:none;stroke:#000000;stroke-linecap:square;stroke-linejoin:miter;stroke-width:0.8;"/>
   </g>
   <g id="patch_5">
    <path d="M 45 319.1184 
L 324 319.1184 
" style="fill:none;stroke:#000000;stroke-linecap:square;stroke-linejoin:miter;stroke-width:0.8;"/>
   </g>
   <g id="patch_6">
    <path d="M 45 43.0272 
L 324 43.0272 
" style="fill:none;stroke:#000000;stroke-linecap:square;stroke-linejoin:miter;stroke-width:0.8;"/>
   </g>
   <g id="legend_1">
    <g id="patch_7">
     <path d="M 52 80.38345 
L 90.348438 80.38345 
Q 92.348438 80.38345 92.348438 78.38345 
L 92.348438 50.0272 
Q 92.348438 48.0272 90.348438 48.0272 
L 52 48.0272 
Q 50 48.0272 50 50.0272 
L 50 78.38345 
Q 50 80.38345 52 80.38345 
z
" style="fill:#ffffff;opacity:0.8;stroke:#cccccc;stroke-linejoin:miter;"/>
    </g>
    <g id="line2d_17">
     <path d="M 54 56.125637 
L 74 56.125637 
" style="fill:none;stroke:#1f77b4;stroke-linecap:square;stroke-width:1.5;"/>
    </g>
    <g id="line2d_18"/>
    <g id="text_15">
     <!-- c -->
     <defs>
      <path d="M 48.78125 52.59375 
L 48.78125 44.1875 
Q 44.96875 46.296875 41.140625 47.34375 
Q 37.3125 48.390625 33.40625 48.390625 
Q 24.65625 48.390625 19.8125 42.84375 
Q 14.984375 37.3125 14.984375 27.296875 
Q 14.984375 17.28125 19.8125 11.734375 
Q 24.65625 6.203125 33.40625 6.203125 
Q 37.3125 6.203125 41.140625 7.25 
Q 44.96875 8.296875 48.78125 10.40625 
L 48.78125 2.09375 
Q 45.015625 0.34375 40.984375 -0.53125 
Q 36.96875 -1.421875 32.421875 -1.421875 
Q 20.0625 -1.421875 12.78125 6.34375 
Q 5.515625 14.109375 5.515625 27.296875 
Q 5.515625 40.671875 12.859375 48.328125 
Q 20.21875 56 33.015625 56 
Q 37.15625 56 41.109375 55.140625 
Q 45.0625 54.296875 48.78125 52.59375 
z
" id="DejaVuSans-99"/>
     </defs>
     <g transform="translate(82 59.625637)scale(0.1 -0.1)">
      <use xlink:href="#DejaVuSans-99"/>
     </g>
    </g>
    <g id="line2d_19">
     <path d="M 54 70.803763 
L 74 70.803763 
" style="fill:none;stroke:#ff7f0e;stroke-linecap:square;stroke-width:1.5;"/>
    </g>
    <g id="line2d_20"/>
    <g id="text_16">
     <!-- b -->
     <defs>
      <path d="M 48.6875 27.296875 
Q 48.6875 37.203125 44.609375 42.84375 
Q 40.53125 48.484375 33.40625 48.484375 
Q 26.265625 48.484375 22.1875 42.84375 
Q 18.109375 37.203125 18.109375 27.296875 
Q 18.109375 17.390625 22.1875 11.75 
Q 26.265625 6.109375 33.40625 6.109375 
Q 40.53125 6.109375 44.609375 11.75 
Q 48.6875 17.390625 48.6875 27.296875 
z
M 18.109375 46.390625 
Q 20.953125 51.265625 25.265625 53.625 
Q 29.59375 56 35.59375 56 
Q 45.5625 56 51.78125 48.09375 
Q 58.015625 40.1875 58.015625 27.296875 
Q 58.015625 14.40625 51.78125 6.484375 
Q 45.5625 -1.421875 35.59375 -1.421875 
Q 29.59375 -1.421875 25.265625 0.953125 
Q 20.953125 3.328125 18.109375 8.203125 
L 18.109375 0 
L 9.078125 0 
L 9.078125 75.984375 
L 18.109375 75.984375 
z
" id="DejaVuSans-98"/>
     </defs>
     <g transform="translate(82 74.303763)scale(0.1 -0.1)">
      <use xlink:href="#DejaVuSans-98"/>
     </g>
    </g>
   </g>
  </g>
 </g>
 <defs>
  <clipPath id="pd6ed3ec4f6">
   <rect height="276.0912" width="279" x="45" y="43.0272"/>
  </clipPath>
 </defs>
</svg>

<svg xmlns="http://www.w3.org/2000/svg" xmlns:xlink="http://www.w3.org/1999/xlink" height="479" viewBox="0 0 360 358.56" width="481" stroke-linecap="butt" stroke-linejoin="round"><style><![CDATA[.B{stroke:#000}.C{stroke-width:.8}.D{stroke-linecap:butt}.E{stroke-linejoin:round}.F{stroke-linecap:square}.G{stroke-width:1.5}.H{clip-path:url(#L)}.I{stroke-linejoin:miter}]]></style><g fill="#fff"><path d="M0 358.56h360V0H0z"/><path d="M45 319.118h279V43.027H45z"/></g><defs><path d="M0 0v3.5" id="A" class="B C D E"/></defs><use x="57.682" xlink:href="#A" y="319.118" class="B C"/><defs><path d="M31.78 66.406q-7.61 0-11.453-7.5-3.828-7.484-3.828-22.53 0-14.984 3.828-22.484 3.844-7.5 11.453-7.5 7.672 0 11.5 7.5 3.844 7.5 3.844 22.484 0 15.047-3.844 22.53-3.828 7.5-11.5 7.5zm0 7.813q12.266 0 18.734-9.703 6.47-9.687 6.47-28.14 0-18.406-6.47-28.11-6.47-9.687-18.734-9.687-12.25 0-18.72 9.688-6.47 9.703-6.47 28.11 0 18.453 6.47 28.14 6.47 9.703 18.72 9.703z" id="B"/></defs><use xlink:href="#B" transform="matrix(.1 0 0 -.1 54.500568 333.716838)"/><use x="108.409" xlink:href="#A" y="319.118" class="B C"/><defs><path d="M12.406 8.297h16.11v55.625l-17.53-3.516v8.984l17.438 3.516h9.86V8.297h16.11V0H12.406z" id="C"/></defs><use xlink:href="#C" transform="matrix(.1 0 0 -.1 105.227841 333.716838)"/><use x="159.136" xlink:href="#A" y="319.118" class="B C"/><defs><path d="M19.188 8.297H53.61V0H7.328v8.297q5.61 5.813 15.297 15.594 9.703 9.797 12.188 12.64 4.734 5.313 6.61 9 1.89 3.688 1.89 7.25 0 5.813-4.078 9.47-4.078 3.672-10.625 3.672-4.64 0-9.797-1.61-5.14-1.61-11-4.89v9.97q5.953 2.39 11.125 3.61 5.188 1.22 9.484 1.22 11.328 0 18.063-5.672 6.734-5.656 6.734-15.125 0-4.5-1.687-8.53-1.672-4.016-6.125-9.484-1.22-1.422-7.766-8.187-6.53-6.766-18.453-18.922z" id="D"/></defs><use xlink:href="#D" transform="matrix(.1 0 0 -.1 155.955114 333.716838)"/><use x="209.864" xlink:href="#A" y="319.118" class="B C"/><defs><path d="M40.578 39.313Q47.656 37.797 51.625 33q3.984-4.78 3.984-11.812 0-10.78-7.422-16.703-7.422-5.906-21.094-5.906-4.578 0-9.437.906-4.86.906-10.03 2.72v9.516q4.094-2.39 8.97-3.61 4.89-1.22 10.22-1.22 9.266 0 14.125 3.656 4.86 3.656 4.86 10.64 0 6.453-4.516 10.078-4.516 3.64-12.562 3.64h-8.5v8.11h8.89q7.266 0 11.125 2.906 3.86 2.906 3.86 8.375 0 5.61-3.984 8.61-3.97 3.016-11.39 3.016-4.062 0-8.703-.89-4.64-.875-10.203-2.72v8.78q5.625 1.563 10.53 2.344 4.906.78 9.25.78 11.234 0 17.766-5.11 6.547-5.094 6.547-13.78 0-6.062-3.47-10.234-3.47-4.172-9.86-5.78z" id="E"/></defs><use xlink:href="#E" transform="matrix(.1 0 0 -.1 206.682386 333.716838)"/><use x="260.591" xlink:href="#A" y="319.118" class="B C"/><defs><path d="M37.797 64.313L12.89 25.39h24.906zm-2.594 8.594H47.61V25.39h10.406v-8.203H47.61V0h-9.812v17.188H4.89v9.516z" id="F"/></defs><use xlink:href="#F" transform="matrix(.1 0 0 -.1 257.409659 333.716838)"/><use x="311.318" xlink:href="#A" y="319.118" class="B C"/><defs><path d="M10.797 72.906h38.72v-8.312H19.828v-17.86q2.14.734 4.28 1.094 2.156.36 4.313.36 12.203 0 19.328-6.687 7.14-6.687 7.14-18.11 0-11.766-7.328-18.297-7.328-6.516-20.656-6.516-4.594 0-9.36.78-4.75.78-9.828 2.344v9.922q4.39-2.39 9.078-3.562 4.688-1.172 9.906-1.172 8.453 0 13.375 4.438 4.938 4.438 4.938 12.063 0 7.61-4.937 12.047-4.922 4.453-13.375 4.453-3.953 0-7.89-.875-3.922-.875-8.016-2.734z" id="G"/></defs><use xlink:href="#G" transform="matrix(.1 0 0 -.1 308.136932 333.716838)"/><defs><path d="M0 0h-3.5" id="H" class="B C D E"/></defs><use x="45" xlink:href="#H" y="309.695" class="B C"/><defs><path d="M10.688 12.406H21V0H10.688z" id="I"/></defs><g transform="matrix(.1 0 0 -.1 22.096875 313.494117)"><use xlink:href="#B"/><use x="63.623" xlink:href="#I"/><use x="95.41" xlink:href="#G"/></g><use x="45" xlink:href="#H" y="273.628" class="B C"/><g transform="matrix(.1 0 0 -.1 22.096875 277.427536)"><use xlink:href="#C"/><use x="63.623" xlink:href="#I"/><use x="95.41" xlink:href="#B"/></g><use x="45" xlink:href="#H" y="237.562" class="B C"/><g transform="matrix(.1 0 0 -.1 22.096875 241.360954)"><use xlink:href="#C"/><use x="63.623" xlink:href="#I"/><use x="95.41" xlink:href="#G"/></g><use x="45" xlink:href="#H" y="201.495" class="B C"/><g transform="matrix(.1 0 0 -.1 22.096875 205.294373)"><use xlink:href="#D"/><use x="63.623" xlink:href="#I"/><use x="95.41" xlink:href="#B"/></g><use x="45" xlink:href="#H" y="165.429" class="B C"/><g transform="matrix(.1 0 0 -.1 22.096875 169.227792)"><use xlink:href="#D"/><use x="63.623" xlink:href="#I"/><use x="95.41" xlink:href="#G"/></g><use x="45" xlink:href="#H" y="129.362" class="B C"/><g transform="matrix(.1 0 0 -.1 22.096875 133.16121)"><use xlink:href="#E"/><use x="63.623" xlink:href="#I"/><use x="95.41" xlink:href="#B"/></g><use x="45" xlink:href="#H" y="93.295" class="B C"/><g transform="matrix(.1 0 0 -.1 22.096875 97.094629)"><use xlink:href="#E"/><use x="63.623" xlink:href="#I"/><use x="95.41" xlink:href="#G"/></g><use x="45" xlink:href="#H" y="57.229" class="B C"/><g transform="matrix(.1 0 0 -.1 22.096875 61.028048)"><use xlink:href="#F"/><use x="63.623" xlink:href="#I"/><use x="95.41" xlink:href="#B"/></g><g fill="none" class="F"><g class="G H"><path d="M57.682 235.318l50.727 21.23 50.727-48.812 50.727 27.892 50.727-3.68 50.727-101.763" stroke="#1f77b4"/><path d="M57.682 256.382l50.727-13.722 50.727-111.765 50.727 175.674 50.727-23.557 50.727-227.435" stroke="#ff7f0e"/></g><g class="B C I"><path d="M45 319.118V43.027m279 276.09V43.027"/><path d="M45 319.118h279M45 43.027h279"/></g></g><path d="M52 80.383h38.348q2 0 2-2V50.027q0-2-2-2H52q-2 0-2 2v28.356q0 2 2 2z" fill="#fff" opacity=".8" stroke="#ccc" class="I"/><path d="M54 56.126h20" fill="none" stroke="#1f77b4" class="F G"/><defs><path d="M48.78 52.594v-8.406q-3.812 2.11-7.64 3.156-3.828 1.047-7.734 1.047-8.75 0-13.594-5.547-4.828-5.53-4.828-15.547 0-10.016 4.828-15.562 4.844-5.53 13.594-5.53 3.906 0 7.734 1.047 3.828 1.047 7.64 3.156V2.094Q45.016.344 40.984-.53q-4.016-.89-8.562-.89-12.36 0-19.64 7.766-7.266 7.766-7.266 20.953 0 13.375 7.344 21.03Q20.22 56 33.016 56q4.14 0 8.094-.86 3.953-.844 7.672-2.547z" id="J"/></defs><use xlink:href="#J" transform="matrix(.1 0 0 -.1 82 59.625637)"/><path d="M54 70.804h20" fill="none" stroke="#ff7f0e" class="F G"/><defs><path d="M48.688 27.297q0 9.906-4.078 15.547-4.078 5.64-11.203 5.64-7.14 0-11.22-5.64-4.078-5.64-4.078-15.547 0-9.906 4.078-15.547 4.078-5.64 11.22-5.64 7.125 0 11.203 5.64 4.078 5.64 4.078 15.547zM18.11 46.39q2.844 4.875 7.156 7.234Q29.594 56 35.594 56q9.97 0 16.188-7.906 6.234-7.906 6.234-20.797 0-12.89-6.234-20.812-6.22-7.906-16.187-7.906-6 0-10.328 2.375-4.312 2.375-7.156 7.25V0h-9.03v75.984h9.03z" id="K"/></defs><use xlink:href="#K" transform="matrix(.1 0 0 -.1 82 74.303763)"/><defs><clipPath id="L"><path d="M45 43.027h279v276.09H45z"/></clipPath></defs></svg>
